file-rotate-right-outline.svg

<svg fill="currentColor" viewBox="0 0 24 24"><path d="M20 11h3l-4 4-4-4h3c0-3.31-2.69-6-6-6l-1 .08V3.06L12 3c4.42 0 8 3.58 8 8M9 7H5c-1.1 0-2 .9-2 2v9a2 2 0 0 0 2 2h6c1.11 0 2-.89 2-2v-7zm2 11H5V9h3v3h3z"/></svg>

<svg  viewBox="0 0 24 24" fill="currentColor"><path  d="M20 11H23L19 15L15 11H18C18 7.69 15.31 5 12 5L11 5.08V3.06L12 3C16.42 3 20 6.58 20 11M9 7H5C3.9 7 3 7.9 3 9V18C3 19.11 3.9 20 5 20H11C12.11 20 13 19.11 13 18V11L9 7M11 18H5V9H8V12H11V18Z"/></svg>
